!! Orlando di Lasso, "Qui vult renire post me" 2-part polyphony;
!! alla breve; No. 9 from "Examples of Gregorian Chant & Works ...", compiled
!! by Gustave Soderlund, Appleton-Century-Crofts (New York), 1937; pp. 16-17
**kern	**kern
*M4/2	*M4/2
=1	=1
0C	1r
.	[1c
=2	=2
1AA	1c]
2r	1A
2D	.
=3	=3
1E	2r
.	2G
1F	1A
=4	=4
1G	1B-
1F	1c
=5	=5
2r	1B-
2G	.
1A	2r
.	2c
=6	=6
2G	1d
2.F	.
.	2c
4E	.
2G	[2B-
=7	=7
2D	4B-]
.	4A
2A	2c
1B-	2G
.	2D
=8	=8
2A	1F
2.AA	.
.	2.E
4BB-	.
4C	.
4AA	4F
=9	=9
4BB-	2G
4C	.
4FF	2.A
4GG	.
2.AA	.
.	4G
.	[2F
4BB-	.
=10	=10
1GG	4F]
.	8E
.	8D
.	2E
[1FF	1F
=11	=11
1FF]	2r
.	2c
2r	2A
2F	[2A
=12	=12
2D	2A]
1D	2B-
.	1A
2F	.
=13	=13
2E	2G
2D	2F
1C	2r
.	2G
=14	=14
2r	2E
2C	1E
2AA	.
[2AA	2F
=15	=15
2AA]	2E
2F	2D
2E	2C
2D	2F
=16	=16
1C	2G
.	2A
2r	2.B-
2D	.
.	8A
.	8B-
=17	=17
2E	2.c
2F	.
.	4d
2.G	2e-
.	2d
8F	.
8G	.
=18	=18
2A	1.c
2E	.
1F	.
.	2A
=19	=19
1D	2r
.	2F
2r	2G
2C	2A
=20	=20
2D	4B-
.	8A
.	8B-
2E	1c
4F	.
8E	.
8F	.
2G	2B-
=21	=21
2F	2.A
2.D	.
.	4G
.	4F
4C	4E
4C	[2A
8BB-	.
8AA	.
=22	=22
1BB-	4A]
.	8G
.	8F
.	2G
2AA	1A
[2F	.
=23	=23
2F]	1c
2E-	.
1D	2B-
.	[2A
=24	=24
2C	2A]
2.BB-	2G
.	2.F
4C	.
4D	.
4E	4G
=25	=25
2F	4A
.	4B-
4r	2c
2A	.
.	4r
4G	2d
2F	.
.	4c
=26	=26
4G	2B-
2D	.
.	2A
4C	.
2BB-	4r
.	2d
2AA	.
.	4c
=27	=27
4r	2B-
2G	.
.	2A
4F	.
2E-	4r
.	2B-
2D	.
.	4A
=28	=28
4r	2G
2B-	.
.	2F
4A	.
2G	4r
.	2B-
2F	.
.	4A
=29	=29
4r	2G
2BB-	.
.	2F
4AA	.
2GG	4r
.	2d
2FF	.
.	4c
=30	=30
4r	2B-
2D	.
.	2A
4C	.
2BB-	4r
.	2G
2AA	.
.	4F
=31	=31
1GG	2E-
.	2D
2r	1C
2G	.
=32	=32
2E	1c
2.F	.
.	2A
4E	.
4D	[2f
4C	.
=33	=33
2.BB-	4f]
.	4e
.	4d
4C	4c
4D	2B-
4E	.
[2F	2A
=34	=34
2F]	1G
2E	.
1F	2r
.	[2F
=35	=35
1BB-	2F]
.	2D
2GG	2.B-
[2BB-	.
.	4A
=36	=36
4BB-]	4G
4AA	4F
4AA	1F
8GG	.
8FF	.
2.GG	.
.	2E
4GG	.
=37	=37
0FF;	0F;
==	==
*-	*-
